images/logo-white.svg

<svg id="Layer_4" xmlns="http://www.w3.org/2000/svg" viewBox="0 0 839 200"><style>.st0{fill:#FFFFFF;}</style><g id="XMLID_7_"><path id="XMLID_2_" class="st0" d="M275.5 51.8c0 10.9-3.2 19.7-9.7 26.1-7.4 7.7-17 11.6-28.8 11.6-11.3 0-20.9-3.9-28.8-11.8-7.9-7.8-11.9-17.6-11.9-29.1s4-21.3 11.9-29.1c7.9-7.8 17.5-11.8 28.8-11.8 5.6 0 11 1.1 16.1 3.3 5.1 2.2 9.2 5.1 12.2 8.8l-6.9 6.9c-5.2-6.2-12.3-9.3-21.4-9.3-8.2 0-15.4 2.9-21.4 8.7-6 5.8-9 13.3-9 22.6s3 16.8 9 22.6c6 5.8 13.1 8.7 21.4 8.7 8.8 0 16-2.9 21.9-8.8 3.8-3.8 6-9.1 6.6-15.9H237v-9.4h38c.3 2.1.5 4 .5 5.9z"/><path id="XMLID_4_" class="st0" d="M285.4 87.8V9.5h24c12 0 21.7 3.6 28.9 10.9 7.2 7.3 10.8 16.7 10.8 28.3s-3.6 21-10.8 28.3c-7.2 7.3-16.8 10.9-28.9 10.9h-24zm10.1-9.6h13.9c9 0 16.2-2.6 21.5-7.8 5.3-5.2 7.9-12.4 7.9-21.8 0-9.3-2.6-16.5-7.9-21.7-5.3-5.2-12.5-7.8-21.5-7.8h-13.9v59.1z"/><path id="XMLID_8_" class="st0" d="M434.5 51.8c0 10.9-3.2 19.7-9.7 26.1-7.4 7.7-17 11.6-28.8 11.6-11.3 0-20.9-3.9-28.8-11.8-7.9-7.8-11.9-17.6-11.9-29.1s4-21.3 11.9-29.1c7.9-7.8 17.5-11.8 28.8-11.8 5.6 0 11 1.1 16.1 3.3 5.1 2.2 9.2 5.1 12.2 8.8l-6.9 6.9c-5.2-6.2-12.3-9.3-21.4-9.3-8.2 0-15.4 2.9-21.4 8.7-6 5.8-9 13.3-9 22.6s3 16.8 9 22.6c6 5.8 13.1 8.7 21.4 8.7 8.8 0 16-2.9 21.9-8.8 3.8-3.8 6-9.1 6.6-15.9H396v-9.4h38c.3 2.1.5 4 .5 5.9z"/><path id="XMLID_10_" class="st0" d="M470.8 87.8V9.5h24c12 0 21.7 3.6 28.9 10.9 7.2 7.3 10.8 16.7 10.8 28.3s-3.6 21-10.8 28.3c-7.2 7.3-16.8 10.9-28.9 10.9h-24zm10.1-9.6h13.9c9 0 16.2-2.6 21.5-7.8 5.3-5.2 7.9-12.4 7.9-21.8 0-9.3-2.6-16.5-7.9-21.7-5.3-5.2-12.5-7.8-21.5-7.8h-13.9v59.1z"/><path id="XMLID_13_" class="st0" d="M567.4 89.6c-8.1 0-14.7-2.7-19.7-8.1-5.1-5.4-7.6-12.2-7.6-20.5 0-7.8 2.5-14.5 7.4-20.1 4.9-5.6 11.2-8.4 18.9-8.4 7.9 0 14.3 2.6 19.1 7.8 4.8 5.2 7.2 12.1 7.2 20.8l-.1 1.9h-42.3c.3 5.4 2.1 9.7 5.4 12.8 3.3 3.1 7.2 4.7 11.6 4.7 7.2 0 12.1-3.1 14.7-9.2l9 3.7c-1.8 4.2-4.6 7.6-8.6 10.4-4.2 2.8-9.1 4.2-15 4.2zm14.5-35c-.2-3.1-1.6-6-4.2-8.8-2.6-2.8-6.4-4.2-11.5-4.2-3.7 0-6.9 1.2-9.7 3.5-2.7 2.3-4.6 5.5-5.6 9.4h31z"/><path id="XMLID_16_" class="st0" d="M613.7 87.8L592 34.2h11l15.8 41.6h.2l16-41.6h10.7l-21.9 53.6h-10.1z"/><path id="XMLID_18_" class="st0" d="M661.6 87.8h-10.1V9.5h45.7v9.6h-35.7v25.7h32.2v9.4h-32.2v33.6z"/><path id="XMLID_20_" class="st0" d="M727.7 89.6c-8.1 0-14.7-2.7-19.7-8.1-5.1-5.4-7.6-12.2-7.6-20.5 0-7.8 2.5-14.5 7.4-20.1 4.9-5.6 11.2-8.4 18.9-8.4 7.9 0 14.3 2.6 19.1 7.8 4.8 5.2 7.2 12.1 7.2 20.8l-.1 1.9h-42.3c.3 5.4 2.1 9.7 5.4 12.8 3.3 3.1 7.2 4.7 11.6 4.7 7.2 0 12.1-3.1 14.7-9.2l9 3.7c-1.8 4.2-4.6 7.6-8.6 10.4-4.3 2.8-9.2 4.2-15 4.2zm14.4-35c-.2-3.1-1.6-6-4.2-8.8-2.6-2.8-6.4-4.2-11.5-4.2-3.7 0-6.9 1.2-9.7 3.5-2.7 2.3-4.6 5.5-5.6 9.4h31z"/><path id="XMLID_27_" class="st0" d="M779.5 89.6c-6 0-10.9-1.5-14.8-4.4-3.9-2.9-6.8-6.6-8.6-10.9l9-3.7c2.8 6.7 7.7 10.1 14.5 10.1 3.1 0 5.7-.7 7.7-2.1 2-1.4 3-3.2 3-5.5 0-3.5-2.4-5.9-7.3-7.1l-10.8-2.6c-3.4-.9-6.7-2.5-9.7-5-3.1-2.4-4.6-5.7-4.6-9.9 0-4.7 2.1-8.6 6.3-11.5 4.2-3 9.2-4.4 14.9-4.4 4.7 0 9 1.1 12.7 3.2 3.7 2.2 6.4 5.2 8 9.2l-8.8 3.6c-2-4.7-6.1-7.1-12.2-7.1-3 0-5.5.6-7.5 1.9-2 1.2-3.1 2.9-3.1 5 0 3.1 2.4 5.1 7.1 6.2l10.6 2.5c5 1.2 8.8 3.2 11.2 6 2.4 2.8 3.6 6.1 3.6 9.6 0 4.8-2 8.8-5.9 12-4 3.3-9.1 4.9-15.3 4.9z"/><path id="XMLID_29_" class="st0" d="M830.9 88.7c-5.6 0-9.9-1.5-12.9-4.5s-4.4-7.2-4.4-12.7V43.4h-9.4v-9.2h9.4V17.8h10.1v16.4h13.1v9.2h-13.1v27.3c0 5.8 2.4 8.8 7.2 8.8 1.8 0 3.4-.3 4.6-.9l3.5 8.6c-2.2 1-4.9 1.5-8.1 1.5z"/><path id="XMLID_31_" class="st0" d="M222.2 192.7c-5.7 0-11.2-1.9-16.7-5.6-5.4-3.7-9-8.9-10.7-15.6l9.2-3.7c1.1 4.3 3.3 7.9 6.7 10.9 3.4 3 7.2 4.4 11.4 4.4 4.4 0 8.1-1.1 11.2-3.4 3.1-2.3 4.6-5.4 4.6-9.4 0-4.4-1.6-7.7-4.6-10.1-3.1-2.4-8-4.6-14.7-6.6-6.9-2.2-12.2-5-15.8-8.5-3.6-3.5-5.4-7.9-5.4-13.3 0-5.6 2.2-10.5 6.7-14.7 4.4-4.2 10.2-6.2 17.4-6.2 6.6 0 12 1.7 16.2 5 4.2 3.3 6.9 6.9 8.1 10.9l-9.2 3.8c-.7-2.5-2.3-4.8-4.9-6.9-2.6-2.1-5.9-3.2-10-3.2-3.9 0-7.2 1.1-9.9 3.2-2.7 2.2-4.1 4.8-4.1 8 0 2.9 1.3 5.4 3.8 7.4s6.2 3.8 11.1 5.4c3.9 1.2 7.1 2.4 9.7 3.6 2.6 1.2 5.2 2.7 7.9 4.6 2.7 1.9 4.7 4.3 6 7.2 1.3 2.9 2 6.2 2 10s-.8 7.2-2.4 10.2c-1.6 3-3.6 5.4-6.2 7.1-2.6 1.8-5.4 3.1-8.4 4-2.8 1-5.9 1.5-9 1.5z"/><path id="XMLID_33_" class="st0" d="M281.4 192.7c-8.1 0-14.7-2.7-19.7-8.1-5.1-5.4-7.6-12.2-7.6-20.5 0-7.8 2.5-14.5 7.4-20.1 4.9-5.6 11.2-8.4 18.9-8.4 7.9 0 14.3 2.6 19.1 7.8 4.8 5.2 7.2 12.1 7.2 20.8l-.1 1.9h-42.3c.3 5.4 2.1 9.7 5.4 12.8 3.3 3.1 7.2 4.7 11.6 4.7 7.2 0 12.1-3.1 14.7-9.2l9 3.7c-1.8 4.2-4.6 7.6-8.6 10.4-4.3 2.8-9.2 4.2-15 4.2zm14.4-35c-.2-3.1-1.6-6-4.2-8.8-2.6-2.8-6.4-4.2-11.5-4.2-3.7 0-6.9 1.2-9.7 3.5-2.7 2.3-4.6 5.5-5.6 9.4h31z"/><path id="XMLID_36_" class="st0" d="M330.3 192.7c-5.7 0-10.4-1.6-14.3-4.9-3.8-3.3-5.7-7.6-5.7-13 0-5.8 2.3-10.4 6.8-13.7 4.5-3.3 10.1-5 16.7-5 5.9 0 10.8 1.1 14.5 3.3v-1.5c0-3.9-1.3-7.1-4-9.5-2.7-2.4-6-3.6-10-3.6-2.9 0-5.6.7-7.9 2.1-2.4 1.4-4 3.3-4.9 5.7l-9.2-3.9c1.2-3.2 3.7-6.2 7.3-8.9 3.6-2.7 8.5-4.1 14.4-4.1 6.9 0 12.5 2 17.1 6 4.5 4 6.8 9.7 6.8 17v32.4h-9.6v-7.4h-.4c-4 5.9-9.9 9-17.6 9zm1.7-9.2c4.2 0 7.9-1.5 11.3-4.6 3.4-3.1 5.1-6.8 5.1-11-2.8-2.3-7.1-3.5-12.8-3.5-4.9 0-8.6 1.1-11 3.2-2.5 2.1-3.7 4.6-3.7 7.4 0 2.6 1.1 4.7 3.4 6.2 2.2 1.5 4.7 2.3 7.7 2.3z"/><path id="XMLID_39_" class="st0" d="M387 192.7c-6 0-10.9-1.5-14.8-4.4-3.9-2.9-6.8-6.6-8.6-10.9l9-3.7c2.8 6.7 7.7 10.1 14.5 10.1 3.1 0 5.7-.7 7.7-2.1 2-1.4 3-3.2 3-5.5 0-3.5-2.4-5.9-7.3-7.1l-10.8-2.6c-3.4-.9-6.7-2.5-9.7-5-3.1-2.4-4.6-5.7-4.6-9.9 0-4.7 2.1-8.6 6.3-11.5 4.2-3 9.2-4.4 14.9-4.4 4.7 0 9 1.1 12.7 3.2 3.7 2.2 6.4 5.2 8 9.2l-8.8 3.6c-2-4.7-6.1-7.1-12.2-7.1-3 0-5.5.6-7.5 1.9-2 1.2-3.1 2.9-3.1 5 0 3.1 2.4 5.1 7.1 6.2l10.6 2.5c5 1.2 8.7 3.2 11.2 6 2.4 2.8 3.6 6.1 3.6 9.6 0 4.8-2 8.8-5.9 12-4.1 3.3-9.1 4.9-15.3 4.9z"/><path id="XMLID_41_" class="st0" d="M419.7 143.7c5.2-5.4 11.8-8.1 19.8-8.1s14.6 2.7 19.8 8.1c5.2 5.4 7.8 12.2 7.8 20.4s-2.6 15-7.8 20.4c-5.2 5.4-11.8 8.1-19.8 8.1s-14.6-2.7-19.8-8.1c-5.2-5.4-7.8-12.2-7.8-20.4 0-8.1 2.6-14.9 7.8-20.4zm7.5 34.5c3.5 3.5 7.6 5.3 12.3 5.3 4.7 0 8.8-1.8 12.3-5.3s5.2-8.2 5.2-14.1c0-5.8-1.7-10.5-5.2-14.1-3.5-3.5-7.6-5.3-12.3-5.3-4.7 0-8.8 1.8-12.3 5.3s-5.2 8.2-5.2 14.1 1.7 10.6 5.2 14.1z"/><path id="XMLID_44_" class="st0" d="M483.8 137.3v7.4h.4c1.5-2.6 3.8-4.7 6.9-6.5 3.1-1.8 6.5-2.7 10.1-2.7 6.6 0 11.7 2 15.2 6.1s5.2 9.6 5.2 16.4v32.8h-10.1v-31.3c0-9.9-4.4-14.9-13.2-14.9-4.2 0-7.5 1.7-10.2 5-2.6 3.3-3.9 7.2-3.9 11.5v29.6h-10.1v-53.6h9.7z"/><path id="XMLID_46_" class="st0" d="M603.5 190.9h-47.7v-10.1c14.3-14.4 23.4-23.7 27.5-28.1 3.6-4 6-7.1 7.2-9.1 1.2-2.1 1.9-4.6 1.9-7.7 0-3.1-1.2-5.9-3.7-8.3-2.5-2.4-5.8-3.6-10-3.6-3.8 0-6.9 1.1-9.2 3.3-2.3 2.2-3.8 4.6-4.5 7.2l-9.2-3.7c1.2-3.9 3.8-7.7 7.8-11.2 3.9-3.5 9-5.2 15.3-5.2 6.9 0 12.6 2.1 17.1 6.3 4.4 4.2 6.7 9.3 6.7 15.2 0 7.3-4 15.1-11.9 23.4l-21.9 22h34.7v9.6z"/><path id="XMLID_48_" class="st0" d="M661.1 181.4c-5.5 7.5-12.8 11.3-21.8 11.3s-16.2-3.8-21.8-11.3c-5.5-7.5-8.3-16.8-8.3-27.9 0-11.2 2.8-20.5 8.3-27.9 5.5-7.5 12.8-11.2 21.8-11.2s16.2 3.7 21.8 11.2c5.5 7.5 8.3 16.8 8.3 27.9 0 11.1-2.8 20.4-8.3 27.9zm-21.8 1.7c6 0 10.8-2.8 14.4-8.4 3.6-5.6 5.4-12.6 5.4-21.1 0-8.5-1.8-15.6-5.4-21.2-3.6-5.6-8.4-8.4-14.4-8.4-6.1 0-10.9 2.8-14.4 8.4-3.6 5.6-5.4 12.6-5.4 21.2 0 8.5 1.8 15.5 5.4 21.1 3.6 5.6 8.4 8.4 14.4 8.4z"/><path id="XMLID_51_" class="st0" d="M701.3 190.9h-10.1v-62.3l-14.5 6.3-3.8-8.5 22-10.3h6.5v74.8z"/><path id="XMLID_53_" class="st0" d="M739.5 143.1c5.8 0 11.2 2.4 16.1 7.2 4.9 4.8 7.3 10.6 7.3 17.3 0 6.6-2.5 12.5-7.6 17.5s-11.1 7.5-18 7.5c-7.4 0-13.6-2.5-18.4-7.6-4.9-5.1-7.3-10.9-7.3-17.4 0-6.9 2.9-14.7 8.8-23.2l20.3-30.1 8.1 5.6-17.8 24.7.2.2c1.8-1.1 4.5-1.7 8.3-1.7zm-2.2 39.8c4.2 0 7.9-1.5 10.9-4.4 3-2.9 4.5-6.5 4.5-10.8 0-4.2-1.5-7.8-4.5-10.8-3-3-6.7-4.4-10.9-4.4s-7.9 1.5-10.9 4.4c-3.1 3-4.6 6.5-4.6 10.8 0 4.3 1.5 7.9 4.5 10.8 3 3 6.7 4.4 11 4.4z"/></g><g id="XMLID_261_"><path id="XMLID_259_" class="st0" d="M32.3 0H0l92.3 160 16.2-28z"/><path id="XMLID_258_" class="st0" d="M120.9 91L68.3 0H36.1l74.3 128.8 10.5-18.2c1.7-2.8 2.8-6.2 2.8-9.8-.1-3.6-1.1-6.9-2.8-9.8z"/><path id="XMLID_257_" class="st0" d="M56.3 104.1L.9 200h32.3l39.3-68z"/><path id="XMLID_256_" class="st0" d="M74.3 135.3L37 200h32.2l21.3-36.8z"/></g></svg>

<?xml version="1.0" encoding="UTF-8" standalone="no"?>
<!DOCTYPE svg PUBLIC "-//W3C//DTD SVG 1.1//EN" "http://www.w3.org/Graphics/SVG/1.1/DTD/svg11.dtd">
<svg width="100%" height="100%" viewBox="0 0 839 200" version="1.1" xmlns="http://www.w3.org/2000/svg" xmlns:xlink="http://www.w3.org/1999/xlink" xml:space="preserve" style="fill-rule:evenodd;clip-rule:evenodd;stroke-linejoin:round;stroke-miterlimit:1.41421;">
    <g id="XMLID_7_">
        <g transform="matrix(1.45463,0,0,1.65242,18.9859,-15.249)">
            <g transform="matrix(1,0,0,1,123.029,126.071)">
                <text x="0px" y="0px" style="font-family:'ProductSans-Regular', 'Product Sans', sans-serif;font-size:70px;fill:white;">T</text>
            </g>
            <g transform="matrix(1,0,0,1,155.579,126.071)">
                <text x="0px" y="0px" style="font-family:'ProductSans-Regular', 'Product Sans', sans-serif;font-size:70px;fill:white;">AIPEI</text>
            </g>
        </g>
        <path id="XMLID_2_" d="M275.5,51.8C275.5,62.7 272.3,71.5 265.8,77.9C258.4,85.6 248.8,89.5 237,89.5C225.7,89.5 216.1,85.6 208.2,77.7C200.3,69.9 196.3,60.1 196.3,48.6C196.3,37.1 200.3,27.3 208.2,19.5C216.1,11.7 225.7,7.7 237,7.7C242.6,7.7 248,8.8 253.1,11C258.2,13.2 262.3,16.1 265.3,19.8L258.4,26.7C253.2,20.5 246.1,17.4 237,17.4C228.8,17.4 221.6,20.3 215.6,26.1C209.6,31.9 206.6,39.4 206.6,48.7C206.6,58 209.6,65.5 215.6,71.3C221.6,77.1 228.7,80 237,80C245.8,80 253,77.1 258.9,71.2C262.7,67.4 264.9,62.1 265.5,55.3L237,55.3L237,45.9L275,45.9C275.3,48 275.5,49.9 275.5,51.8Z" style="fill:white;fill-rule:nonzero;"/>
        <path id="XMLID_4_" d="M285.4,87.8L285.4,9.5L309.4,9.5C321.4,9.5 331.1,13.1 338.3,20.4C345.5,27.7 349.1,37.1 349.1,48.7C349.1,60.3 345.5,69.7 338.3,77C331.1,84.3 321.5,87.9 309.4,87.9L285.4,87.9L285.4,87.8ZM295.5,78.2L309.4,78.2C318.4,78.2 325.6,75.6 330.9,70.4C336.2,65.2 338.8,58 338.8,48.6C338.8,39.3 336.2,32.1 330.9,26.9C325.6,21.7 318.4,19.1 309.4,19.1L295.5,19.1L295.5,78.2Z" style="fill:white;fill-rule:nonzero;"/>
        <path id="XMLID_8_" d="M434.5,51.8C434.5,62.7 431.3,71.5 424.8,77.9C417.4,85.6 407.8,89.5 396,89.5C384.7,89.5 375.1,85.6 367.2,77.7C359.3,69.9 355.3,60.1 355.3,48.6C355.3,37.1 359.3,27.3 367.2,19.5C375.1,11.7 384.7,7.7 396,7.7C401.6,7.7 407,8.8 412.1,11C417.2,13.2 421.3,16.1 424.3,19.8L417.4,26.7C412.2,20.5 405.1,17.4 396,17.4C387.8,17.4 380.6,20.3 374.6,26.1C368.6,31.9 365.6,39.4 365.6,48.7C365.6,58 368.6,65.5 374.6,71.3C380.6,77.1 387.7,80 396,80C404.8,80 412,77.1 417.9,71.2C421.7,67.4 423.9,62.1 424.5,55.3L396,55.3L396,45.9L434,45.9C434.3,48 434.5,49.9 434.5,51.8Z" style="fill:white;fill-rule:nonzero;"/>
        <path id="XMLID_10_" d="M470.8,87.8L470.8,9.5L494.8,9.5C506.8,9.5 516.5,13.1 523.7,20.4C530.9,27.7 534.5,37.1 534.5,48.7C534.5,60.3 530.9,69.7 523.7,77C516.5,84.3 506.9,87.9 494.8,87.9L470.8,87.9L470.8,87.8ZM480.9,78.2L494.8,78.2C503.8,78.2 511,75.6 516.3,70.4C521.6,65.2 524.2,58 524.2,48.6C524.2,39.3 521.6,32.1 516.3,26.9C511,21.7 503.8,19.1 494.8,19.1L480.9,19.1L480.9,78.2Z" style="fill:white;fill-rule:nonzero;"/>
        <path id="XMLID_13_" d="M567.4,89.6C559.3,89.6 552.7,86.9 547.7,81.5C542.6,76.1 540.1,69.3 540.1,61C540.1,53.2 542.6,46.5 547.5,40.9C552.4,35.3 558.7,32.5 566.4,32.5C574.3,32.5 580.7,35.1 585.5,40.3C590.3,45.5 592.7,52.4 592.7,61.1L592.6,63L550.3,63C550.6,68.4 552.4,72.7 555.7,75.8C559,78.9 562.9,80.5 567.3,80.5C574.5,80.5 579.4,77.4 582,71.3L591,75C589.2,79.2 586.4,82.6 582.4,85.4C578.2,88.2 573.3,89.6 567.4,89.6ZM581.9,54.6C581.7,51.5 580.3,48.6 577.7,45.8C575.1,43 571.3,41.6 566.2,41.6C562.5,41.6 559.3,42.8 556.5,45.1C553.8,47.4 551.9,50.6 550.9,54.5L581.9,54.5L581.9,54.6Z" style="fill:white;fill-rule:nonzero;"/>
        <path id="XMLID_16_" d="M613.7,87.8L592,34.2L603,34.2L618.8,75.8L619,75.8L635,34.2L645.7,34.2L623.8,87.8L613.7,87.8Z" style="fill:white;fill-rule:nonzero;"/>
        <path id="XMLID_18_" d="M661.6,87.8L651.5,87.8L651.5,9.5L697.2,9.5L697.2,19.1L661.5,19.1L661.5,44.8L693.7,44.8L693.7,54.2L661.5,54.2L661.5,87.8L661.6,87.8Z" style="fill:white;fill-rule:nonzero;"/>
        <path id="XMLID_20_" d="M727.7,89.6C719.6,89.6 713,86.9 708,81.5C702.9,76.1 700.4,69.3 700.4,61C700.4,53.2 702.9,46.5 707.8,40.9C712.7,35.3 719,32.5 726.7,32.5C734.6,32.5 741,35.1 745.8,40.3C750.6,45.5 753,52.4 753,61.1L752.9,63L710.6,63C710.9,68.4 712.7,72.7 716,75.8C719.3,78.9 723.2,80.5 727.6,80.5C734.8,80.5 739.7,77.4 742.3,71.3L751.3,75C749.5,79.2 746.7,82.6 742.7,85.4C738.4,88.2 733.5,89.6 727.7,89.6ZM742.1,54.6C741.9,51.5 740.5,48.6 737.9,45.8C735.3,43 731.5,41.6 726.4,41.6C722.7,41.6 719.5,42.8 716.7,45.1C714,47.4 712.1,50.6 711.1,54.5L742.1,54.5L742.1,54.6Z" style="fill:white;fill-rule:nonzero;"/>
        <path id="XMLID_27_" d="M779.5,89.6C773.5,89.6 768.6,88.1 764.7,85.2C760.8,82.3 757.9,78.6 756.1,74.3L765.1,70.6C767.9,77.3 772.8,80.7 779.6,80.7C782.7,80.7 785.3,80 787.3,78.6C789.3,77.2 790.3,75.4 790.3,73.1C790.3,69.6 787.9,67.2 783,66L772.2,63.4C768.8,62.5 765.5,60.9 762.5,58.4C759.4,56 757.9,52.7 757.9,48.5C757.9,43.8 760,39.9 764.2,37C768.4,34 773.4,32.6 779.1,32.6C783.8,32.6 788.1,33.7 791.8,35.8C795.5,38 798.2,41 799.8,45L791,48.6C789,43.9 784.9,41.5 778.8,41.5C775.8,41.5 773.3,42.1 771.3,43.4C769.3,44.6 768.2,46.3 768.2,48.4C768.2,51.5 770.6,53.5 775.3,54.6L785.9,57.1C790.9,58.3 794.7,60.3 797.1,63.1C799.5,65.9 800.7,69.2 800.7,72.7C800.7,77.5 798.7,81.5 794.8,84.7C790.8,88 785.7,89.6 779.5,89.6Z" style="fill:white;fill-rule:nonzero;"/>
        <path id="XMLID_29_" d="M830.9,88.7C825.3,88.7 821,87.2 818,84.2C815,81.2 813.6,77 813.6,71.5L813.6,43.4L804.2,43.4L804.2,34.2L813.6,34.2L813.6,17.8L823.7,17.8L823.7,34.2L836.8,34.2L836.8,43.4L823.7,43.4L823.7,70.7C823.7,76.5 826.1,79.5 830.9,79.5C832.7,79.5 834.3,79.2 835.5,78.6L839,87.2C836.8,88.2 834.1,88.7 830.9,88.7Z" style="fill:white;fill-rule:nonzero;"/>
        <g id="XMLID_46_" transform="matrix(1,0,0,1,-55.243,1.80533)">
            <path d="M603.5,190.9L555.8,190.9L555.8,180.8C570.1,166.4 579.2,157.1 583.3,152.7C586.9,148.7 589.3,145.6 590.5,143.6C591.7,141.5 592.4,139 592.4,135.9C592.4,132.8 591.2,130 588.7,127.6C586.2,125.2 582.9,124 578.7,124C574.9,124 571.8,125.1 569.5,127.3C567.2,129.5 565.7,131.9 565,134.5L555.8,130.8C557,126.9 559.6,123.1 563.6,119.6C567.5,116.1 572.6,114.4 578.9,114.4C585.8,114.4 591.5,116.5 596,120.7C600.4,124.9 602.7,130 602.7,135.9C602.7,143.2 598.7,151 590.8,159.3L568.9,181.3L603.6,181.3L603.6,190.9L603.5,190.9Z" style="fill:white;fill-rule:nonzero;"/>
        </g>
        <g id="XMLID_48_" transform="matrix(1,0,0,1,-55.243,1.80533)">
            <path d="M661.1,181.4C655.6,188.9 648.3,192.7 639.3,192.7C630.3,192.7 623.1,188.9 617.5,181.4C612,173.9 609.2,164.6 609.2,153.5C609.2,142.3 612,133 617.5,125.6C623,118.1 630.3,114.4 639.3,114.4C648.3,114.4 655.5,118.1 661.1,125.6C666.6,133.1 669.4,142.4 669.4,153.5C669.4,164.6 666.6,173.9 661.1,181.4ZM639.3,183.1C645.3,183.1 650.1,180.3 653.7,174.7C657.3,169.1 659.1,162.1 659.1,153.6C659.1,145.1 657.3,138 653.7,132.4C650.1,126.8 645.3,124 639.3,124C633.2,124 628.4,126.8 624.9,132.4C621.3,138 619.5,145 619.5,153.6C619.5,162.1 621.3,169.1 624.9,174.7C628.5,180.3 633.3,183.1 639.3,183.1Z" style="fill:white;fill-rule:nonzero;"/>
        </g>
        <g id="XMLID_51_" transform="matrix(1,0,0,1,-55.243,1.80533)">
            <path d="M701.3,190.9L691.2,190.9L691.2,128.6L676.7,134.9L672.9,126.4L694.9,116.1L701.4,116.1L701.4,190.9L701.3,190.9Z" style="fill:white;fill-rule:nonzero;"/>
        </g>
        <g id="XMLID_53_" transform="matrix(1,0,0,1,-55.243,1.80533)">
            <path d="M739.5,143.1C745.3,143.1 750.7,145.5 755.6,150.3C760.5,155.1 762.9,160.9 762.9,167.6C762.9,174.2 760.4,180.1 755.3,185.1C750.2,190.1 744.2,192.6 737.3,192.6C729.9,192.6 723.7,190.1 718.9,185C714,179.9 711.6,174.1 711.6,167.6C711.6,160.7 714.5,152.9 720.4,144.4L740.7,114.3L748.8,119.9L731,144.6L731.2,144.8C733,143.7 735.7,143.1 739.5,143.1ZM737.3,182.9C741.5,182.9 745.2,181.4 748.2,178.5C751.2,175.6 752.7,172 752.7,167.7C752.7,163.5 751.2,159.9 748.2,156.9C745.2,153.9 741.5,152.5 737.3,152.5C733.1,152.5 729.4,154 726.4,156.9C723.3,159.9 721.8,163.4 721.8,167.7C721.8,172 723.3,175.6 726.3,178.5C729.3,181.5 733,182.9 737.3,182.9Z" style="fill:white;fill-rule:nonzero;"/>
        </g>
    </g>
    <g id="XMLID_261_">
        <path id="XMLID_259_" d="M32.3,0L0,0L92.3,160L108.5,132L32.3,0Z" style="fill:white;fill-rule:nonzero;"/>
        <path id="XMLID_258_" d="M120.9,91L68.3,0L36.1,0L110.4,128.8L120.9,110.6C122.6,107.8 123.7,104.4 123.7,100.8C123.6,97.2 122.6,93.9 120.9,91Z" style="fill:white;fill-rule:nonzero;"/>
        <path id="XMLID_257_" d="M56.3,104.1L0.9,200L33.2,200L72.5,132L56.3,104.1Z" style="fill:white;fill-rule:nonzero;"/>
        <path id="XMLID_256_" d="M74.3,135.3L37,200L69.2,200L90.5,163.2L74.3,135.3Z" style="fill:white;fill-rule:nonzero;"/>
    </g>
</svg>
